icons/linear-new-nature-weather-lightning-2.svg

<svg xmlns="http://www.w3.org/2000/svg" width="32px" height="32px" viewBox="0 0 32 32" version="1.1">
    <title>linear-new-nature-weather-lightning-2</title>
    <g id="linear-new-nature-weather-lightning-2" stroke-width="1" fill-rule="evenodd">
        <path d="M19.2280698,1.36429275 C19.9131206,0.532445245 21.2483044,1.22346856 20.9647638,2.26311741 L18.308,12 L26,12 C26.8067041,12 27.2662037,12.8959723 26.8390431,13.5448194 L26.7719302,13.6357073 L12.7719302,30.6357073 C12.0868794,31.4675548 10.7516956,30.7765314 11.0352362,29.7368826 L13.69,20 L6,20 C5.19329588,20 4.7337963,19.1040277 5.16095687,18.4551806 L5.22806976,18.3642927 L19.2280698,1.36429275 Z M17.809,6.232 L8.117,18 L15,18 C15.6205867,18 16.0812927,18.5553852 15.9887041,19.1510783 L15.9647638,19.2631174 L14.19,25.767 L23.881,14 L17,14 C16.3794133,14 15.9187073,13.4446148 16.0112959,12.8489217 L16.0352362,12.7368826 L17.809,6.232 Z" id="&#24418;&#29366;" fill-rule="nonzero" />
    </g>
</svg>

<svg xmlns="http://www.w3.org/2000/svg" viewBox="0 0 32 32"><path fill="currentColor" d="M19.228 1.364c.685-.832 2.02-.14 1.737.9L18.308 12H26a1 1 0 0 1 .839 1.545l-.067.09-14 17c-.685.833-2.02.142-1.737-.898L13.69 20H6a1 1 0 0 1-.839-1.545l.067-.09zM17.81 6.232 8.117 18H15a1 1 0 0 1 .989 1.151l-.024.112-1.775 6.504L23.881 14H17a1 1 0 0 1-.989-1.151l.024-.112z"/></svg>
